assets/svg/gold-coin.svg

<?xml version="1.0" encoding="UTF-8"?>
<svg width="1000px" height="1000px" viewBox="0 0 1000 1000" version="1.1" xmlns="http://www.w3.org/2000/svg" xmlns:xlink="http://www.w3.org/1999/xlink">
    <!-- Generator: sketchtool 52.4 (67378) - http://www.bohemiancoding.com/sketch -->
    <title>gold-coin</title>
    <desc>Created with sketchtool.</desc>
    <g id="新版图标" stroke="none" stroke-width="1" fill="none" fill-rule="evenodd">
        <g id="gold-coin" fill="#323233">
            <g id="直角-支付方式">
                <path d="M444.049623,416.666667 L333.333333,416.666667 L333.333333,472.222222 L472.222222,472.222222 L472.222222,555.555556 L333.333333,555.555556 L333.333333,611.111111 L472.222222,611.111111 L472.222222,750 L527.777778,750 L527.777778,611.111111 L666.666667,611.111111 L666.666667,555.555556 L527.777778,555.555556 L527.777778,472.222222 L666.666667,472.222222 L666.666667,416.666667 L557.924483,416.666667 L657.529661,317.061488 L618.245951,277.777778 L500.987053,395.036676 L383.728155,277.777778 L344.444444,317.061488 L444.049623,416.666667 Z M500,944.444444 C254.540111,944.444444 55.5555556,745.459889 55.5555556,500 C55.5555556,254.540111 254.540111,55.5555556 500,55.5555556 C745.459889,55.5555556 944.444444,254.540111 944.444444,500 C944.444444,745.459889 745.459889,944.444444 500,944.444444 Z" id="Combined-Shape"></path>
            </g>
        </g>
    </g>
</svg>

<svg width="1000" height="1000" xmlns="http://www.w3.org/2000/svg"><path d="M444.05 416.667H333.333v55.555h138.89v83.334h-138.89v55.555h138.89V750h55.555V611.111h138.889v-55.555h-138.89v-83.334h138.89v-55.555H557.924l99.606-99.606-39.284-39.283-117.259 117.259-117.259-117.26-39.284 39.284 99.606 99.606zM500 944.444C254.54 944.444 55.556 745.46 55.556 500S254.54 55.556 500 55.556 944.444 254.54 944.444 500 745.46 944.444 500 944.444z" fill="#323233" fill-rule="evenodd"/></svg>
